dist/img/svg/icon-menu-points.svg

<svg width="13" height="13" viewBox="0 0 13 13" fill="none" xmlns="http://www.w3.org/2000/svg">
<path d="M6.50129 7.22118C4.46476 7.22118 2.429 7.22118 0.392467 7.22118C0.0149552 7.22118 0.00481544 7.2126 0.00403546 6.82334C0.00169551 5.45898 0.000915527 4.09541 0.000915527 2.73105C0.000915527 2.3418 0.0165152 2.32775 0.418206 2.32775C1.32455 2.32775 2.23011 2.32229 3.13645 2.33322C3.37512 2.33634 3.46716 2.26067 3.4617 2.0165C3.44844 1.46109 3.4617 0.905674 3.45312 0.350259C3.44844 0.106095 3.53814 -0.000775839 3.79319 4.23814e-06C5.60509 0.00702493 7.41777 0.00780501 9.22968 0.00390462C9.47849 0.00312455 9.54713 0.118576 9.54401 0.345578C9.53543 0.900993 9.54869 1.45641 9.53621 2.01182C9.53075 2.25209 9.61577 2.33556 9.85756 2.33244C10.7834 2.32229 11.7085 2.33868 12.6343 2.32463C12.9206 2.31995 13.0025 2.42292 13.0009 2.69829C12.99 4.07201 12.9954 5.44572 12.9939 6.82022C12.9931 7.2204 12.99 7.22196 12.5805 7.22196C10.5549 7.22118 8.52769 7.22118 6.50129 7.22118ZM6.49661 3.76856C4.92885 3.76856 3.3603 3.77246 1.79254 3.76466C1.55152 3.7631 1.46338 3.8411 1.47118 4.08371C1.48522 4.54083 1.48756 4.99952 1.4704 5.45664C1.46026 5.72109 1.56634 5.7952 1.8136 5.78584C2.19267 5.77102 2.5733 5.78194 2.95315 5.78194C5.69947 5.78194 8.44657 5.7796 11.1929 5.78662C11.4487 5.7874 11.5384 5.70939 11.5283 5.45274C11.5111 5.01512 11.5049 4.57516 11.5275 4.13831C11.5431 3.83564 11.4331 3.76076 11.143 3.7631C9.59393 3.77558 8.04488 3.76856 6.49661 3.76856ZM6.46932 2.32775V2.32931C6.91625 2.32931 7.36396 2.32385 7.81089 2.33166C7.99886 2.33478 8.08232 2.26301 8.06906 2.07501C8.0636 1.99778 8.06048 1.91899 8.06906 1.84177C8.09948 1.56874 7.99574 1.46421 7.70871 1.47123C6.97006 1.48839 6.23064 1.47747 5.492 1.47669C4.89531 1.47669 4.90155 1.47591 4.92417 2.07267C4.93119 2.25911 4.99749 2.33322 5.18468 2.3301C5.61367 2.32307 6.04188 2.32775 6.46932 2.32775Z" fill="white"/>
<path d="M6.48179 12.9992C4.45539 12.9992 2.429 12.9992 0.4026 12.9992C0.0336681 12.9992 0.0048087 12.9735 0.00402872 12.5998C0.00168877 11.2261 0.000908789 9.85239 0.00168877 8.47868C0.00168877 8.08552 0.0172884 8.07304 0.41742 8.0707C0.660775 8.06914 0.904909 8.08396 1.14826 8.06992C1.40956 8.0551 1.48288 8.17133 1.48054 8.41784C1.4704 9.33364 1.48522 10.2495 1.4704 11.1653C1.46572 11.4508 1.56555 11.5303 1.84089 11.5296C4.96784 11.5225 8.09557 11.5233 11.2225 11.5288C11.4526 11.5288 11.5283 11.4476 11.5267 11.2214C11.5189 10.2963 11.5314 9.37031 11.5205 8.44436C11.5174 8.17133 11.5993 8.04964 11.8863 8.06914C12.1679 8.08786 12.451 8.0785 12.7334 8.07304C12.9205 8.06914 12.9978 8.15729 12.9978 8.33749C12.9954 9.79857 12.9931 11.2604 12.9962 12.7215C12.997 12.9984 12.8168 12.9984 12.621 12.9984C11.1695 12.9977 9.71794 12.9992 8.26639 13C7.6697 13 7.07614 12.9992 6.48179 12.9992Z" fill="white"/>
</svg>

<svg width="13" height="13" viewBox="0 0 13 13" fill="none" xmlns="http://www.w3.org/2000/svg"><path d="M6.501 7.221H.392c-.377 0-.387-.008-.388-.398L.001 2.731c0-.39.016-.403.417-.403.907 0 1.812-.006 2.718.005.24.003.331-.072.326-.317-.014-.555 0-1.11-.009-1.666-.005-.244.085-.35.34-.35C5.605.007 7.418.008 9.23.004c.248 0 .317.115.314.342-.009.555.005 1.11-.008 1.666-.005.24.08.324.322.32.925-.01 1.85.007 2.776-.007.287-.005.368.098.367.373-.011 1.374-.006 2.748-.007 4.122 0 .4-.004.402-.413.402H6.5zM6.497 3.77c-1.568 0-3.137.003-4.704-.004-.241-.002-.33.076-.322.319.014.457.017.916 0 1.373-.01.264.095.338.343.329.379-.015.76-.004 1.14-.004 2.745 0 5.493-.002 8.239.005.256 0 .345-.078.335-.334a14.478 14.478 0 010-1.315c.015-.302-.095-.377-.385-.375-1.55.013-3.098.006-4.646.006zm-.028-1.441v.001c.447 0 .895-.005 1.342.003.188.003.271-.069.258-.257a1.294 1.294 0 010-.233c.03-.273-.073-.378-.36-.37-.739.016-1.478.005-2.217.005-.597 0-.59-.001-.568.596.007.186.073.26.26.257.43-.007.858-.002 1.285-.002zM6.482 13H.402c-.368 0-.397-.027-.398-.4C.002 11.226.001 9.852.002 8.479c0-.393.015-.406.415-.408.244-.002.488.013.731-.001.262-.015.335.101.333.348-.01.916.004 1.832-.01 2.747-.005.286.095.365.37.365 3.127-.007 6.255-.007 9.382-.001.23 0 .305-.081.304-.308-.008-.925.004-1.85-.006-2.777-.004-.273.078-.394.365-.375.282.019.565.01.847.004.188-.004.265.084.265.264a1164.82 1164.82 0 00-.002 4.385c.001.276-.18.276-.375.276L8.266 13H6.482z" fill="#fff"/></svg>
